icons/rubymine-dark.svg

<svg width="256px" height="256px" viewBox="0 0 256 256" version="1.1" xmlns="http://www.w3.org/2000/svg" xmlns:xlink="http://www.w3.org/1999/xlink">
<defs>
<linearGradient x1="67.621528%" y1="100.611091%" x2="37.048611%" y2="13.5946112%" id="linearGradient-rogjtz_q3g-1">
<stop stop-color="#FF1F51" offset="17%"></stop>
<stop stop-color="#FF3648" offset="28%"></stop>
<stop stop-color="#FF593B" offset="47%"></stop>
<stop stop-color="#FF7231" offset="65%"></stop>
<stop stop-color="#FF812B" offset="81%"></stop>
<stop stop-color="#FF8629" offset="94%"></stop>
</linearGradient>
<linearGradient x1="61.538462%" y1="22.8509256%" x2="43.605769%" y2="91.769217%" id="linearGradient-rogjtz_q3g-2">
<stop stop-color="#9039D0" offset="2%"></stop>
<stop stop-color="#FF1F51" offset="63%"></stop>
</linearGradient>
<linearGradient x1="0.57095135%" y1="8.066034%" x2="81.7715871%" y2="97.528013%" id="linearGradient-rogjtz_q3g-3">
<stop stop-color="#9039D0" offset="11%"></stop>
<stop stop-color="#FF1F51" offset="39%"></stop>
<stop stop-color="#FF1F51" offset="63%"></stop>
<stop stop-color="#FF3648" offset="66%"></stop>
<stop stop-color="#FF593B" offset="71%"></stop>
<stop stop-color="#FF7231" offset="77%"></stop>
<stop stop-color="#FF812B" offset="81%"></stop>
<stop stop-color="#FF8629" offset="85%"></stop>
</linearGradient>
</defs>
<g id="Page-1" stroke="none" stroke-width="1" fill="none" fill-rule="evenodd">
<g id="RubyMine-Dark" fill-rule="nonzero">
<path d="M196,0 L60,0 C26.8629,0 0,26.8629 0,60 L0,196 C0,229.137 26.8629,256 60,256 L196,256 C229.137,256 256,229.137 256,196 L256,60 C256,26.8629 229.137,0 196,0 Z" id="Path" fill="#282828"></path>
<polygon id="Path" fill="url(#linearGradient-rogjtz_q3g-1)" points="186.1378 38 136.646252 56.0703195 97.0612 38 58.636 135.31748 102.887748 117.26082 102.301 166.78688 197.204148 168.53518 215.83 72.3786805"></polygon>
<polygon id="Path" fill="url(#linearGradient-rogjtz_q3g-2)" points="168.085052 94.5329195 105.207452 53.1473805 54.5560516 84.6167805 165.765348 127.75062"></polygon>
<polygon id="Path" fill="url(#linearGradient-rogjtz_q3g-3)" points="113.940452 208.17242 179.1514 199.43092 158.1922 159.22002 172.165 142.898 173.324852 132.4082 105.207452 53.1473805 41.17 68.8820805 41.17 160.96832 77.8486 212.83"></polygon>
<polygon id="Path" fill="#000000" points="70.2754516 67.1337805 186.710903 67.1337805 186.710903 183.682561 70.2754516 183.682561"></polygon>
<path d="M127.340148,78.7982195 L138.9796,78.7982195 L151.2058,100.9388 L164.018748,78.7982195 L175.071452,78.7982195 L175.071452,131.24722 L164.591852,131.24722 L164.591852,96.8548805 L151.2058,119.58278 L137.819748,97.4422 L137.819748,131.24722 L127.340148,131.24722 L127.340148,78.7982195 Z M81.9285484,78.7982195 L103.460852,78.7982195 C109.282852,78.7982195 113.940452,80.5465195 117.433652,84.0431195 C120.340103,86.9524 121.527245,91.0363195 121.527245,96.3358539 C121.539815,100.033359 120.534184,103.662822 118.620794,106.825654 C116.937823,109.670633 114.2263,111.758825 111.047645,112.657873 L122.687097,131.301854 L110.406316,131.301854 L100.5544,114.9252 L91.8214,114.9252 L91.8214,131.24722 L81.3418,131.24722 L81.3418,78.7982195 L81.9285484,78.7982195 Z M102.887748,104.4354 C104.976903,104.574086 107.045863,103.953279 108.714297,102.6871 C110.166572,101.325096 111.007946,99.4338535 111.047645,97.4422 C111.162046,95.2496661 110.308977,93.1174153 108.714297,91.6099805 C107.040256,90.3583721 104.971812,89.7522664 102.887748,89.9026562 L92.4081484,89.9026562 L92.4081484,105.02272 L102.887748,105.02272 L102.887748,104.4354 Z M81.9285484,164.46492 L125.593548,164.46492 L125.593548,171.45812 L81.9285484,171.45812 L81.9285484,164.46492 Z" id="Shape" fill="#FFFFFF"></path>
</g>
</g>
</svg>

<svg xmlns="http://www.w3.org/2000/svg" width="256" height="256"><defs><linearGradient id="linearGradient-rogjtz_q3g-1" x1="67.622%" x2="37.049%" y1="100.611%" y2="13.595%"><stop offset="17%" stop-color="#FF1F51"/><stop offset="28%" stop-color="#FF3648"/><stop offset="47%" stop-color="#FF593B"/><stop offset="65%" stop-color="#FF7231"/><stop offset="81%" stop-color="#FF812B"/><stop offset="94%" stop-color="#FF8629"/></linearGradient><linearGradient id="linearGradient-rogjtz_q3g-2" x1="61.538%" x2="43.606%" y1="22.851%" y2="91.769%"><stop offset="2%" stop-color="#9039D0"/><stop offset="63%" stop-color="#FF1F51"/></linearGradient><linearGradient id="linearGradient-rogjtz_q3g-3" x1=".571%" x2="81.772%" y1="8.066%" y2="97.528%"><stop offset="11%" stop-color="#9039D0"/><stop offset="39%" stop-color="#FF1F51"/><stop offset="63%" stop-color="#FF1F51"/><stop offset="66%" stop-color="#FF3648"/><stop offset="71%" stop-color="#FF593B"/><stop offset="77%" stop-color="#FF7231"/><stop offset="81%" stop-color="#FF812B"/><stop offset="85%" stop-color="#FF8629"/></linearGradient></defs><g id="Page-1" fill="none" fill-rule="evenodd" stroke="none" stroke-width="1"><g id="RubyMine-Dark" fill-rule="nonzero"><path id="Path" fill="#282828" d="M196 0H60C26.863 0 0 26.863 0 60v136c0 33.137 26.863 60 60 60h136c33.137 0 60-26.863 60-60V60c0-33.137-26.863-60-60-60"/><path id="Path" fill="url(#linearGradient-rogjtz_q3g-1)" d="m186.138 38-49.492 18.07L97.061 38l-38.425 97.317 44.252-18.056-.587 49.526 94.903 1.748L215.83 72.38z"/><path id="Path" fill="url(#linearGradient-rogjtz_q3g-2)" d="m168.085 94.533-62.878-41.386-50.65 31.47 111.208 43.134z"/><path id="Path" fill="url(#linearGradient-rogjtz_q3g-3)" d="m113.94 208.172 65.211-8.741-20.959-40.211 13.973-16.322 1.16-10.49-68.118-79.26L41.17 68.881v92.086l36.679 51.862z"/><path id="Path" fill="#000" d="M70.275 67.134h116.436v116.549H70.275z"/><path id="Shape" fill="#FFF" d="M127.34 78.798h11.64l12.226 22.14 12.813-22.14h11.052v52.45h-10.48V96.854l-13.385 22.728-13.386-22.14v33.804h-10.48zm-45.411 0h21.532q8.733 0 13.973 5.245c2.906 2.91 4.093 6.993 4.093 12.293a20.13 20.13 0 0 1-2.906 10.49 12.87 12.87 0 0 1-7.573 5.832l11.64 18.644h-12.282l-9.852-16.377h-8.733v16.322h-10.48V78.798zm20.959 25.637a8.7 8.7 0 0 0 5.826-1.748 7.4 7.4 0 0 0 2.334-5.245 7.49 7.49 0 0 0-2.334-5.832 8.7 8.7 0 0 0-5.826-1.707h-10.48v15.12h10.48zm-20.96 60.03h43.666v6.993H81.929z"/></g></g></svg>
